img/icons/lk04.svg

<svg width="32" height="32" viewBox="0 0 32 32" fill="none" xmlns="http://www.w3.org/2000/svg">
<g style="mix-blend-mode:multiply">
<path fill-rule="evenodd" clip-rule="evenodd" d="M19.0293 7.5097L17.5811 4.92474H14.4453L12.9902 7.50287L12.1797 7.83881L9.3418 7.04193L7.12695 9.2724L7.90723 12.1298L7.56738 12.9462L5 14.4052V17.5605L7.55762 19.0292L7.89258 19.8466L7.10156 22.704L9.31836 24.9345L12.1553 24.1484L12.9668 24.4911L14.415 27.0751H17.5498L19.0068 24.4999L19.8184 24.163L22.6562 24.9589L24.873 22.7265L24.0928 19.8701L24.4326 19.0517L27 17.5937V14.4365L24.4404 12.9716L24.1055 12.1552L24.8965 9.29681L22.6777 7.06635L19.8398 7.85248L19.0293 7.5097ZM14.3896 9.09955L15.6094 6.93842H16.4131L17.624 9.10052L19.7041 9.97845L22.0869 9.3183L22.6562 9.89056L21.9941 12.2822L22.8535 14.3798L25 15.6083V16.4169L22.8525 17.6376L21.9805 19.7343L22.6357 22.1308L22.0674 22.7031L19.6924 22.037L17.6094 22.9023L16.3877 25.0615H15.583L14.3711 22.9003L12.292 22.0224L9.90918 22.6826L9.3418 22.1113L10.0039 19.7187L9.14453 17.622L7 16.3906V15.581L9.14746 14.3613L10.0195 12.2665L9.36328 9.8681L9.92969 9.29779L12.3057 9.96478L14.3896 9.09955ZM20 16.0009C20 13.7766 18.2091 11.9726 16 11.9726C13.7909 11.9726 12 13.7766 12 16.0009C12.0002 18.2251 13.791 20.0283 16 20.0283C18.209 20.0283 19.9998 18.2251 20 16.0009ZM18 16.0005C18 17.1127 17.1046 18.0143 16 18.0143C14.8954 18.0143 14 17.1127 14 16.0005C14 14.8884 14.8954 13.9868 16 13.9868C17.1046 13.9868 18 14.8884 18 16.0005Z" fill="#0095BF"/>
</g>
</svg>

<svg xmlns="http://www.w3.org/2000/svg" fill="none" viewBox="0 0 32 32"><path fill="#0095bf" fill-rule="evenodd" d="M19.03 7.51 17.58 4.925h-3.136L12.99 7.503l-.81.336-2.838-.797-2.215 2.23.78 2.858-.34.816L5 14.406v3.155l2.558 1.468.335.818-.791 2.857 2.216 2.23 2.837-.786.812.343 1.448 2.584h3.135l1.457-2.575.811-.337 2.838.796 2.217-2.232-.78-2.857.34-.818L27 17.594v-3.158l-2.56-1.464-.335-.817.791-2.858-2.218-2.23-2.838.785zM14.39 9.1l1.22-2.162h.803l1.211 2.163 2.08.877 2.383-.66.57.573-.663 2.391.86 2.098L25 15.608v.809l-2.148 1.22-.872 2.097.656 2.397-.569.572-2.375-.666-2.083.865-1.221 2.16h-.805L14.371 22.9l-2.079-.878-2.383.66-.567-.57.662-2.393-.86-2.097L7 16.391v-.81l2.147-1.22.873-2.094-.657-2.399.567-.57 2.376.667zM20 16c0-2.223-1.79-4.027-4-4.027S12 13.777 12 16s1.791 4.027 4 4.027 4-1.803 4-4.027m-2 0a2.007 2.007 0 0 1-2 2.014c-1.105 0-2-.901-2-2.014s.895-2.013 2-2.013 2 .901 2 2.013" clip-rule="evenodd" style="mix-blend-mode:multiply"/></svg>
